ERK
CUT[STORCH STORCH HEINI]
REG[Europa, Mitteleuropa, Deutschland; Frankreich, Elsass]
TRD[]
FKT[]
SIG[E1856]
KEY[E1856   08  F 2/4]
MEL[5656  5_3
    3  5656  5_3
    3  5656  5__
    5656  543_ //]
BEM[]
MEL_SEM[2 -2 2 -2 -3 0 3 2 -2 2 -2 -3 0 3 2 -2 2 -2 0 2 -2 2 -2 -2 -1]
MEL_RAW[5656  53
    3  5656  53
    3  5656  5
    5656  543]
NO_REP[565653
    3565653
    356565
    5656543]
RTM[xxxx  x_x
    x  xxxx  x_x
    x  xxxx  x__
    xxxx  xxx_]
SCL_DEG[3456]
SCL_SEM[1 2 2]

